X: 1760
T: Old Drury
B: australian traditional tunes wiki
M:4/4
L:1/8
Q: 1/4=100
K:D
V:1 
A2||"D"F2F2FF GA|"D"f2f2f3c|"D"e3dd2F2|"A7"G4G4|"Em"E2E2EE FG|"A7"c2c2c4|"A7"BA FA BA BA|"D"F4F2A2|
"D"F2F2FF GA|"D"f2f2f3c|"D"e3dd2F2|"A7"G4G4|"Em"E2E2EE FG|"A7"c2c2c4|"A7"BA FA BA FA|"D"d4d4||
||"D"AF Adf2f2|"D"AF Adf2f2|"D"e3d cd ed|"A7"G4G4|"Em"GE GA "A7"c2c2|"Em"GE GA "A7"c2c2|"Em"GE GA "A7"c2B2|"G"B4"A7"A4|
"D"AF Adf2f2|"D"AF Adf2f2|"D"e3d cd ed|"A7"G4G4|"Em"GE GA "A7"c2c2|"Em"GE GA "A7"c2c2|"A7"BA FA BA FA|"D"d4d4||
% abcbook-tune_id 6342d53ab9fdf5b40e852134


% abcbook-boost 0
% abcbook-tablature 
% abcbook-transpose 
% abcbook-lastupdated 1665324382206
% abcbook-soundfonts 
% abcbook-repeats 1
% NFF Book 2013

